X:1
T:The Flyer.
T:The Flyer.
T:RAG.
T:FRIEDA AUFDERHEIDE.
T:Copyright 1908 by Carlin &amp; Lennox.
T:Copyright 1908 by Carlin &amp; Lennox.
T:Copyright 1908 by Carlin &amp; Lennox.
C:FRIEDA AUFDERHEIDE.
Z:Copyright 1908 by Carlin & Lennox.
%%score { 1 | 2 }
L:1/8
Q:1/4=90
M:2/4
K:Ab
V:1 treble nm="Piano" snm="Pno."
V:2 bass 
V:1
"^Moderato."!f!"^INTRO." [Gde]/f/[Gde]/f/ [Gde] z | [^Fce]/=f/[Fce]/=f/ [Fce] z | %2
 [Gde]/f/[Gde]/f/ [Gde]/f/[Gde]/f/ | [Gde]2 z2 |:"^Not too fast" c/E/A/[Fc]/ z/ A/[_Fc]/A/ | %5
 c/E/A/[Fd]/ z/ A/[Ec]/A/ | B/=D/F/[Dc]/ z/ F/[DB]/F/ | B/=D/F/[Dc]/ z/ F/[_DB]/_F/ | %8
 B/D/G/[Dc]/ z/ G/[DB]/E/ | B/D/E/[Dc]/ z/ E/[DB]/E/ | A/C/E/[CB]/ z/ E/[CA]/E/ | z [DG][DF][DE] | %12
 c/E/A/[Ff]/ z/ A/[Ee]/A/ | c/E/A/[Fd]/ z/ A/[Ec]/A/ | B/=D/F/[Dc]/ z/ F/[DB]/F/ | %15
 B/=D/F/c/ z/ F/[_D_B]/_F/ | B/D/G/[Dc]/ z/ G/[DB]/E/ | z [DE][DF][DG] | [CA]4- |1 %19
 [CA]2 [Acea]2 :|2 z [Ee]/[Ee]/ [EGde][EGde] || [EAce] [FAcf]2 [EAce] | [FAcf][EAce] [EAc]2 | %23
 [=DFAB] [=DFAc]2 [DFAB] | [=DFAc][DFAB][DFAc][=DAB] | [DEGB] [DGc]2 [DEGB] | %26
 [DGc][DEGB][DGc][DEGB] | [CEA] [CEB]2 [CEA] | [CE]4 | [EAce] [FAcf]2 [EAce] | %30
 [FAcf][EAce] [EAc]2 | [=DFAB] [=DFAc]2 [DFAB] | [=DFAc][DFAB][DFAc][DEAB] | [DEGB] [DGc]2 [DEGB] | %34
 [DGc]3 [DGc] | [CEA]2 z2 | [Acea]4 |: [GBdg][FBdf]/[GBdg]/- [GBdg]/[FBdf]/[GBdg] | %38
 [FBdf]2 [EBde]2 | [Acea][Gceg]/[Acea]/- [Acea]/[Gceg]/[Acea] | [EAce]4 | %41
 [GBdg][FBdf]/[GBdg]/- [GBdg]/[FBdf]/[GBdg] | [FBdf]3 [EBde] | %43
 [Acea][Gceg]/[Acea]/- [Acea]/[Gceg]/[Acea]/[ceac']/ | [eac'e']3 [=ebc'=e'] | %45
 [f=ac'f'][=eac'=e']/[fac'f']/- [fac'f']/[eac'e']/[fac'f'] | [_ea=c'_e']4 | %47
 !>![dfbd']2 !>![ce=ac']2 | !>![Bdfb]2 [Aa][Bb] | [ceac']2 [eac'e']2- | %50
 [eac'e'][dfd'] [cec']<[Bdb] | [Acea]4- | [Acea]2!8va(! [ac'e'a']2!8va)! :| %53
 _c'/e/a/[ec']/ z/ a/[ec']/a/ | b/d/e/[d_c']/ z/ e/[db]/e/ | a/_c/e/[ca]/ z/ e/[ca]/e/ | %56
 e/_c/e/[ca]/ z/ e/[db]/e/ | _c'/e/a/[ec']/ z/ a/[ec']/a/ | b/d/e/[d_c']/ z/ e/[db]/e/ | %59
 a/_c/e/[ca]/ z/ e/[ca]/e/ | a/_c/e/a/ z/ a/[e_c']/a/ | e'/e/[a_c']/[ee']/ z/ [ac']/[ee']/[ac']/ | %62
 d'/d/[gb]/[dd']/ z/ [gb]/[dd']/[gb]/ | _c'/e/a/c'/ z/ a/[e_c']/a/ | a/_c/e/a/ z/ e/[ca]/e/ | %65
 b/d/e/[db]/ z/ e/[d=b]/e/ | b/d/e/[d_c']/ z/ e/[db]/e/ | [_ca]4- | %68
 [_ca]2!8va(! [a_c'e'a']2!8va)! |] %69
V:2
 !>![B,,B,]3 [B,,B,] | !>![=A,,=A,]3 [A,,A,] | !>![B,,B,]!>![G,,G,] !>![F,,F,]!>![_F,,_F,] | %3
 [E,,E,][E,,E,][F,,F,][G,,G,] |: [A,,A,][E,A,C] [E,A,C][E,,E,] | [A,,A,][E,A,C] [C,C][E,A,C] | %6
 [B,,B,][F,A,B,] [F,A,B,][F,,F,] | [B,,B,][F,A,B,] [F,,F,][_F,,_F,] | [E,,E,][E,G,] [E,G,][G,,G,] | %9
 [E,,E,][E,G,] [F,,F,][G,,G,] | [A,,A,][E,A,] [E,A,][E,,E,] | E,[E,,E,][F,,F,][G,,G,] | %12
 [A,,A,][E,A,C] [E,A,C][E,,E,] | [A,,A,][E,A,C] [C,C][E,A,C] | [B,,B,][F,A,B,] [F,A,B,][F,,F,] | %15
 [B,,B,][F,A,B,] [F,,F,][_F,,_F,] | [E,,E,][E,G,] [E,G,][G,,G,] | E,,[E,,E,][F,,F,][G,,G,] | %18
 [A,,A,]2 [F,,F,]>[E,,E,] |1 [A,,,A,,]2 [A,CE]2 :|2 [A,,,A,,]2 [B,D]2 || %21
 [A,,A,][E,A,C] [E,,E,][E,A,C] | [A,,A,][E,A,C] [C,C][_C,_C] | [B,,B,][=D,A,B,] [F,,F,][D,F,B,] | %24
 [B,,B,][=D,F,B,] [F,,F,][_F,,_F,] | [E,,E,][E,G,] [G,,G,][E,G,] | [G,,G,][E,,E,][F,,F,][G,,G,] | %27
 [A,,A,][E,A,] [E,,E,][E,A,] | z [E,,E,][F,,F,][G,,G,] | [A,,A,][E,A,C] [E,,E,][E,A,C] | %30
 [A,,A,][E,A,C] [C,C][_C,_C] | [B,,B,][=D,A,B,] [F,,F,][D,F,B,] | %32
 [B,,B,][D,F,B,] [F,,F,][_F,,_F,] | [E,,E,][E,G,B,] [G,,G,][E,G,B,] | z [E,,E,][F,,F,][G,,G,] | %35
 [A,,A,]>[F,,F,] [E,,E,][C,,C,] | [A,,,A,,]2 z2 |: [B,,B,][B,DE] [E,,E,][B,DE] | %38
 [B,,B,][E,,E,][F,,F,][G,,G,] | [A,,A,][A,CE] [A,CE][E,,E,] | [A,,A,][C,C][B,,B,][A,,A,] | %41
 [G,,G,][B,DE] [E,,E,][B,DE] | [G,,G,][E,,E,][F,,F,][G,,G,] | [A,,A,][A,CE] [E,,E,][A,CE] | %44
 [A,,A,][C,C][A,,A,][G,,G,] | [F,,F,][=F,A,C] [F,A,C][=A,,=A,] | [C,C][F,,F,][G,,G,][=A,,=A,] | %47
 [B,,B,][F,B,D] [C,C][F,=A,E] | [D,D][F,B,D] [F,F][_F,_F] | [E,E][A,CE] [C,C][_C,_C] | %50
 [B,,B,][E,,E,][F,,F,][G,,G,] | [A,,A,]2 [F,,F,]>[E,,E,] | [A,,,A,,]2 [A,CE]2 :| %53
 [A,,A,][A,_CE] [A,CE][_C,_C] | [B,,B,][B,DE] [E,,E,][G,,G,] | [A,,A,][A,_CE] [A,CE][E,,E,] | %56
 [A,,A,][A,_CE] [A,CE][B,DE] | [A,,A,][A,_CE] [_C,_C][A,CE] | [B,,B,][B,DE] [E,,E,][G,,G,] | %59
 [A,,A,][A,_CE] [A,CE][E,,E,] | [A,,A,][A,_CE] [A,CE][E,,E,] | [_C,_C][A,CE] [A,CE][C,C] | %62
 [B,,B,][B,DE] [E,,E,][B,DE] | [A,,A,][A,_CE] [A,CE][E,,E,] | [A,,A,][A,_CE] [_C,_C][A,CE] | %65
 [B,,B,][B,DE] [E,,E,][G,,G,] | [B,,B,][B,DE] [E,,E,][B,DE] | %67
 [A,,A,][D,,D,]/[E,,E,]/ z/ [_F,,_F,]/[E,,E,]/[_C,,_C,]/ | [A,,,A,,]2 [A,,A,]2 |] %69

